images/icon-forward--blue.svg

<svg width="23" height="21" viewBox="0 0 23 21" xmlns="http://www.w3.org/2000/svg"><title>fa-mail-forward (alias)</title><path d="M1.858 19.336c.023.068.068.158.135.315.067.134.112.247.157.359.067.112.112.202.18.292.089.134.202.202.336.202.135 0 .225-.045.292-.135a.445.445 0 0 0 .112-.314c0-.068 0-.18-.022-.315-.023-.157-.045-.246-.045-.291a19.94 19.94 0 0 1-.067-1.549c0-.831.089-1.594.224-2.267a7.737 7.737 0 0 1 .606-1.728 4.602 4.602 0 0 1 1.01-1.257 5.63 5.63 0 0 1 1.325-.876 7.578 7.578 0 0 1 1.66-.538c.629-.113 1.28-.202 1.931-.27a31.884 31.884 0 0 1 2.199-.067h2.806v3.187c0 .225.068.404.225.561.179.157.359.247.583.247.202 0 .404-.09.561-.247l6.397-6.397a.764.764 0 0 0 .247-.561.766.766 0 0 0-.247-.561L16.066.729a.804.804 0 0 0-.561-.247c-.224 0-.404.09-.583.247a.746.746 0 0 0-.225.561v3.187h-2.806c-5.948 0-9.606 1.684-10.953 5.051-.449 1.122-.673 2.514-.673 4.175 0 1.369.538 3.254 1.593 5.633" fill="#1B3F6A" fill-rule="evenodd"/></svg>

<?xml version="1.0" encoding="UTF-8" standalone="no"?>
<svg width="23px" height="21px" viewBox="0 0 23 21" version="1.1" xmlns="http://www.w3.org/2000/svg" xmlns:xlink="http://www.w3.org/1999/xlink">
    <!-- Generator: Sketch 3.8.3 (29802) - http://www.bohemiancoding.com/sketch -->
    <title>fa-mail-forward (alias)</title>
    <desc>Created with Sketch.</desc>
    <defs></defs>
    <g id="Introduction" stroke="none" stroke-width="1" fill="none" fill-rule="evenodd">
        <g transform="translate(-436.000000, -628.000000)" id="fa-mail-forward-(alias)" fill="#1B3F6A">
            <g transform="translate(436.000000, 628.000000)">
                <path d="M1.858,19.336 C1.881,19.404 1.926,19.494 1.993,19.651 C2.06,19.785 2.105,19.898 2.15,20.01 C2.217,20.122 2.262,20.212 2.33,20.302 C2.419,20.436 2.532,20.504 2.666,20.504 C2.801,20.504 2.891,20.459 2.958,20.369 C3.025,20.302 3.07,20.189 3.07,20.055 C3.07,19.987 3.07,19.875 3.048,19.74 C3.025,19.583 3.003,19.494 3.003,19.449 C2.958,18.865 2.936,18.371 2.936,17.9 C2.936,17.069 3.025,16.306 3.16,15.633 C3.317,14.96 3.519,14.398 3.766,13.905 C4.035,13.411 4.372,13.007 4.776,12.648 C5.18,12.288 5.629,11.997 6.101,11.772 C6.572,11.548 7.133,11.368 7.761,11.234 C8.39,11.121 9.041,11.032 9.692,10.964 C10.343,10.919 11.061,10.897 11.891,10.897 L14.697,10.897 L14.697,14.084 C14.697,14.309 14.765,14.488 14.922,14.645 C15.101,14.802 15.281,14.892 15.505,14.892 C15.707,14.892 15.909,14.802 16.066,14.645 L22.463,8.248 C22.62,8.091 22.71,7.912 22.71,7.687 C22.71,7.463 22.62,7.283 22.463,7.126 L16.066,0.729 C15.909,0.572 15.707,0.482 15.505,0.482 C15.281,0.482 15.101,0.572 14.922,0.729 C14.765,0.886 14.697,1.066 14.697,1.29 L14.697,4.477 L11.891,4.477 C5.943,4.477 2.285,6.161 0.938,9.528 C0.489,10.65 0.265,12.042 0.265,13.703 C0.265,15.072 0.803,16.957 1.858,19.336" id="Fill-243"></path>
            </g>
        </g>
    </g>
</svg>
